dist/assets/img/contacts/marker2.svg

<svg width="173" height="74" viewBox="0 0 173 74" fill="none" xmlns="http://www.w3.org/2000/svg">
<path d="M42.5 52H0.5V0.5H172V52H76.5H76.2579L76.1078 52.1899L59.5 73.1939L42.8922 52.1899L42.7421 52H42.5Z" fill="white" stroke="#EBEBEB"/>
<g clip-path="url(#clip0)">
<path d="M17.6739 18.2024C17.6739 17.0072 17.5262 16.1607 17.28 15.7623C17.0339 15.3639 16.5908 15.1149 16 15.0154V14.8162H22.154V15.0651C21.5632 15.1149 21.1693 15.3141 20.874 15.7125C20.6278 16.0611 20.4801 16.8579 20.4801 18.0032V21.1902L22.6955 19.3975C23.8771 18.4016 24.714 17.6546 25.2064 17.1068C25.8464 16.4595 26.1418 15.9615 26.1418 15.6627C26.1418 15.4137 26.0925 15.2643 25.9941 15.2145C25.8956 15.1149 25.6987 15.0651 25.4525 15.0651V14.8162H31.6557V15.0651C30.7696 15.0651 29.9326 15.3141 29.0464 15.8619C28.8003 16.0113 28.0618 16.5591 26.831 17.6048L24.911 19.1983C26.1418 20.3935 27.2741 21.738 28.2095 23.2817C29.0957 24.676 29.8834 26.2695 30.5726 28.0124L31.0649 29.2076C31.4096 30.0541 31.6557 30.5521 31.7542 30.7513C32.0988 31.2991 32.5419 31.5979 33.0342 31.6974V31.9464H27.4218V31.6974C28.0126 31.5979 28.308 31.2493 28.308 30.7015C28.308 30.0541 28.0618 29.2076 27.6187 28.0622C27.2741 27.2655 26.8802 26.4189 26.3879 25.5724C25.8956 24.7258 25.4033 23.9291 24.8125 23.1821C24.271 22.4351 23.6309 21.6882 22.8925 20.8914L20.4309 22.8833V28.5602C20.4309 29.5562 20.4801 30.2533 20.6278 30.6517C20.874 31.2991 21.3663 31.6974 22.1048 31.7472V31.9962H16V31.7472C16.7385 31.6477 17.1816 31.2493 17.4277 30.7015C17.5754 30.3031 17.6739 29.6558 17.6739 28.7594V18.2024Z" fill="#FF3D00"/>
<path d="M41.4527 22.1365C41.5512 21.7879 41.6989 21.3896 41.7974 21.041C41.8958 20.6426 41.9943 20.3438 41.9943 20.1446C41.9943 19.8956 41.9451 19.6964 41.7974 19.5471C41.6497 19.3977 41.4035 19.2981 41.0589 19.2981V19.0989H44.9974V19.3479C44.5051 19.3977 44.062 19.6964 43.7666 20.1944C43.6189 20.4434 43.422 20.8916 43.1759 21.6883L39.1881 33.2911C38.5973 35.034 37.908 36.2292 37.1696 36.7769C36.5295 37.2749 35.7418 37.5239 34.7572 37.5239C34.3141 37.5239 33.871 37.4243 33.4279 37.2749C32.9849 37.1255 32.591 36.8765 32.1971 36.5777L33.6741 33.0421L33.871 33.1915C33.8218 33.3907 33.7726 33.5899 33.7726 33.8389C33.7726 34.3867 33.9203 34.8348 34.1664 35.2332C34.4618 35.6316 34.8064 35.8308 35.2988 35.8308C36.0372 35.8308 36.628 35.4822 37.0711 34.7352C37.4157 34.0879 37.6127 33.3907 37.6127 32.5442C37.6127 31.9964 37.465 31.2992 37.2188 30.5523C37.1203 30.2535 36.8249 29.6061 36.4311 28.6102L33.4279 21.6385C33.1325 20.8916 32.8864 20.4434 32.7387 20.1944C32.3941 19.6964 32.0002 19.4475 31.5571 19.4475V19.0989H36.7265V19.3479C36.4311 19.3977 36.2342 19.4475 36.0865 19.5969C35.9388 19.7462 35.8895 19.8956 35.8895 20.1446C35.8895 20.3438 35.9388 20.5928 36.0372 20.8418C36.1357 21.1406 36.2342 21.3398 36.2834 21.4891L39.2865 28.66L41.4527 22.1365Z" fill="#FF3D00"/>
<path d="M56.4686 29.9049C56.7148 30.2535 57.0102 30.6519 57.2563 31.0004C57.601 31.3988 57.9948 31.6478 58.3394 31.6976V31.9466H53.0224V31.6976C53.5639 31.6478 53.8101 31.3988 53.8101 31.0502C53.8101 30.8012 53.6624 30.4527 53.4162 30.0045C53.1701 29.6559 52.9732 29.3571 52.8255 29.1579L50.9054 26.2199L49.0346 28.5604C48.0007 29.9049 47.5084 30.7514 47.5084 31.1C47.5084 31.3988 47.7546 31.598 48.2961 31.6976V31.9466H44.3083V31.6976C44.6037 31.6478 44.8991 31.4984 45.1453 31.2992C45.3915 31.1 45.7853 30.6519 46.3269 29.9547L50.1669 25.1741L48.0007 22.0369C47.1638 20.8418 46.6715 20.1446 46.5238 19.9952C46.0807 19.5471 45.6868 19.3479 45.3422 19.3479V19.0989H50.8562V19.3479C50.2654 19.3977 50.0192 19.6466 50.0192 20.045C50.0192 20.2442 50.1177 20.543 50.3146 20.8418C50.4623 21.0908 50.61 21.3896 50.9054 21.7381L51.8901 23.1823L53.0224 21.6385C53.367 21.1406 53.6132 20.8418 53.6624 20.6924C53.8593 20.3438 53.9578 20.045 53.9578 19.8458C53.9578 19.4973 53.7116 19.3479 53.1701 19.3479V19.0989H57.4533V19.3479C56.8625 19.3977 56.2225 19.7462 55.5825 20.3438C55.4348 20.4932 54.9424 21.0908 54.1547 22.0867L52.4316 24.1782L56.4686 29.9049Z" fill="#FF3D00"/>
<path d="M69.2197 24.477H63.115V28.7098C63.115 29.9049 63.2134 30.7515 63.4596 31.1C63.7057 31.4984 64.0996 31.6976 64.6412 31.6976V31.9466H58.9795V31.6976C59.6687 31.6976 60.1118 31.3988 60.3088 30.7515C60.4564 30.3531 60.5057 29.6559 60.5057 28.7098V22.2859C60.5057 21.0908 60.4072 20.294 60.1611 19.8956C59.9149 19.4973 59.521 19.2981 58.9795 19.2981V19.0989H64.6904V19.3479C64.0011 19.3479 63.5581 19.6466 63.3611 20.294C63.2134 20.6924 63.1642 21.3398 63.1642 22.3357V23.3814H69.2197V22.3357C69.2197 21.1406 69.1213 20.3438 68.8751 19.9454C68.6289 19.5471 68.2351 19.3977 67.6935 19.3977V19.0989H73.4044V19.3479C72.7152 19.3479 72.2721 19.6466 72.0752 20.294C71.9275 20.6924 71.8782 21.3896 71.8782 22.3357V28.7596C71.8782 29.9547 71.9767 30.7515 72.2229 31.1498C72.469 31.5482 72.8629 31.7474 73.4044 31.7474V31.9964H67.6935V31.7474C68.3828 31.7474 68.8259 31.4486 69.0228 30.8012C69.1705 30.4029 69.2197 29.7057 69.2197 28.7596V24.477V24.477Z" fill="#FF3D00"/>
<path d="M84.777 22.2361L78.7215 27.6142V28.7596C78.7215 29.9547 78.8199 30.7515 79.0661 31.1498C79.3123 31.5482 79.7061 31.7474 80.2477 31.7474V31.9964H74.5368V31.7474C75.226 31.6976 75.6691 31.349 75.866 30.7515C76.0137 30.3531 76.063 29.7057 76.063 28.8094V22.2859C76.063 21.3398 76.0137 20.6924 75.866 20.3438C75.6199 19.6964 75.1768 19.3479 74.4875 19.2981V19.0989H80.1984V19.3479C79.5092 19.3479 79.0661 19.6466 78.8692 20.294C78.7215 20.6924 78.6723 21.3896 78.6723 22.3357V26.1701L84.7278 20.792C84.6785 20.4932 84.6293 20.294 84.5308 20.1446C84.2847 19.6964 83.7924 19.3977 83.1523 19.3479V19.0989H88.8632V19.3479C88.174 19.3479 87.7309 19.6466 87.534 20.294C87.3863 20.6924 87.337 21.3896 87.337 22.3357V28.7596C87.337 29.9547 87.4355 30.7515 87.6817 31.1498C87.9278 31.5482 88.3217 31.7474 88.8632 31.7474V31.9964H83.1523V31.7474C83.8416 31.6976 84.2847 31.349 84.4816 30.7515C84.6293 30.3531 84.6785 29.7057 84.6785 28.8094V22.2361H84.777Z" fill="#FF3D00"/>
<path d="M105.307 32.1458C105.159 32.096 105.011 32.096 104.814 32.096C104.667 32.096 104.568 32.096 104.47 32.096L101.368 32.2454C99.8419 32.2454 98.5127 32.096 97.3803 31.7474C96.0511 31.349 94.8695 30.7515 93.8357 29.9049C92.7525 29.0086 91.9156 27.8632 91.3741 26.6183C90.8325 25.3236 90.5371 23.979 90.5371 22.4851C90.5371 21.29 90.734 20.1944 91.1771 19.0989C91.6202 18.0531 92.2602 17.1568 93.0972 16.4098C93.9341 15.7127 94.9187 15.1649 96.0019 14.8661C97.085 14.5673 98.2665 14.4179 99.4973 14.4179L102.353 14.6669L103.19 14.7665C103.436 14.7665 103.633 14.7167 103.83 14.6669C103.977 14.5673 104.125 14.4677 104.224 14.2188L105.405 19.1487L105.208 19.2483C104.765 18.1527 103.977 17.356 102.993 16.7584C101.959 16.1608 100.827 15.8621 99.5958 15.8621C98.7096 15.8621 97.8727 16.0115 97.2326 16.2604C96.5434 16.5094 95.9526 16.9576 95.4111 17.605C94.8695 18.2523 94.4757 18.9993 94.1803 19.796C93.8849 20.6426 93.7372 21.4892 93.7372 22.3357C93.7372 24.6762 94.4264 26.6681 95.8542 28.3114C97.3311 30.0543 99.2019 30.9008 101.467 30.9008C102.747 30.9008 103.879 30.5523 104.864 29.8053C105.799 29.1081 106.587 28.1122 107.177 26.8175L107.424 26.9171L105.307 32.1458Z" fill="#FF3D00"/>
<path d="M117.959 22.2361L111.904 27.6142V28.7596C111.904 29.9547 112.002 30.7515 112.248 31.1498C112.494 31.5482 112.888 31.7474 113.43 31.7474V31.9964H107.719V31.7474C108.408 31.6976 108.851 31.349 109.048 30.7515C109.196 30.3531 109.245 29.7057 109.245 28.8094V22.2859C109.245 21.3398 109.196 20.6924 109.048 20.3438C108.802 19.6964 108.359 19.3479 107.67 19.2981V19.0989H113.381V19.3479C112.691 19.3479 112.248 19.6466 112.051 20.294C111.904 20.6924 111.854 21.3896 111.854 22.3357V26.1701L117.91 20.792C117.861 20.4932 117.811 20.294 117.713 20.1446C117.467 19.6964 116.975 19.3977 116.334 19.3479V19.0989H122.045V19.3479C121.356 19.3479 120.913 19.6466 120.716 20.294C120.568 20.6924 120.519 21.3896 120.519 22.3357V28.7596C120.519 29.9547 120.618 30.7515 120.864 31.1498C121.11 31.5482 121.504 31.7474 122.045 31.7474V31.9964H116.433V31.7474C117.122 31.6976 117.565 31.349 117.762 30.7515C117.91 30.3531 117.959 29.7057 117.959 28.8094V22.2361Z" fill="#FF3D00"/>
<path d="M130.267 28.7097C130.267 29.7056 130.316 30.353 130.464 30.7016C130.71 31.349 131.202 31.6477 131.941 31.6477V31.8967H125.984V31.6477C126.722 31.6477 127.165 31.2992 127.412 30.6518C127.559 30.2534 127.658 29.5563 127.658 28.6599V20.294C126.132 20.294 124.999 20.5927 124.261 21.1903C123.621 21.6883 123.03 22.6344 122.488 23.979L122.242 23.8794L123.522 18.7004C123.621 18.8498 123.768 18.9494 123.916 18.9494C124.064 18.9992 124.261 18.9992 124.556 18.9992H125.048H132.925H133.418C133.664 18.9992 133.861 18.9992 134.058 18.9494C134.206 18.8996 134.353 18.8 134.452 18.7004L135.732 23.8794L135.486 23.979C134.993 22.6344 134.402 21.7381 133.713 21.1903C132.925 20.5927 131.793 20.294 130.316 20.294V28.7097H130.267Z" fill="#FF3D00"/>
<path d="M146.021 22.2361L139.966 27.6142V28.7596C139.966 29.9547 140.064 30.7515 140.31 31.1498C140.557 31.5482 140.951 31.7474 141.492 31.7474V31.9964H135.781V31.7474C136.47 31.6976 136.913 31.349 137.11 30.7515C137.258 30.3531 137.307 29.7057 137.307 28.8094V22.2859C137.307 21.3398 137.258 20.6924 137.11 20.3438C136.864 19.6964 136.421 19.3479 135.732 19.2981V19.0989H141.443V19.3479C140.754 19.3479 140.31 19.6466 140.114 20.294C139.966 20.6924 139.917 21.3896 139.917 22.3357V26.1701L145.972 20.792C145.923 20.4932 145.874 20.294 145.775 20.1446C145.529 19.6964 145.086 19.3977 144.397 19.3479V19.0989H150.108V19.3479C149.418 19.3479 148.975 19.6466 148.778 20.294C148.631 20.6924 148.581 21.3896 148.581 22.3357V28.7596C148.581 29.9547 148.68 30.7515 148.926 31.1498C149.172 31.5482 149.566 31.7474 150.108 31.7474V31.9964H144.495V31.7474C145.184 31.6976 145.628 31.349 145.824 30.7515C145.972 30.3531 146.021 29.7057 146.021 28.8094V22.2361V22.2361Z" fill="#FF3D00"/>
<path d="M154.637 20.7423C153.554 20.7423 152.618 19.8459 152.618 18.7504C152.618 17.605 153.554 16.7585 154.637 16.7585C155.72 16.7585 156.606 17.6548 156.606 18.7504C156.606 19.8459 155.72 20.7423 154.637 20.7423ZM154.637 21.1407C155.966 21.1407 157 20.0949 157 18.7504C157 17.4059 155.966 16.3601 154.637 16.3601C153.308 16.3601 152.274 17.4059 152.274 18.7504C152.274 20.0949 153.308 21.1407 154.637 21.1407ZM154.981 18.85C155.425 18.85 155.769 18.6508 155.769 18.1528C155.769 17.605 155.326 17.4556 154.834 17.4556H153.701V20.0451H154.046V18.85H154.489L155.277 20.0451H155.72L154.981 18.85ZM154.095 18.4516V17.8042H154.785C155.08 17.8042 155.425 17.854 155.425 18.103C155.425 18.5014 154.883 18.4516 154.538 18.4516H154.095Z" fill="#FF3D00"/>
</g>
<defs>
<clipPath id="clip0">
<rect width="141" height="23" fill="white" transform="translate(16 13.5)"/>
</clipPath>
</defs>
</svg>

<svg width="173" height="74" viewBox="0 0 173 74" fill="none" xmlns="http://www.w3.org/2000/svg"><path d="M42.5 52H.5V.5H172V52H76.258l-.15.19L59.5 73.194 42.892 52.19l-.15-.19H42.5z" fill="#fff" stroke="#EBEBEB"/><g clip-path="url(#clip0)" fill="#FF3D00"><path d="M17.674 18.202c0-1.195-.148-2.041-.394-2.44-.246-.398-.69-.647-1.28-.747v-.199h6.154v.25c-.59.049-.985.248-1.28.646-.246.35-.394 1.146-.394 2.291v3.187l2.215-1.793c1.182-.995 2.019-1.742 2.511-2.29.64-.648.936-1.146.936-1.444 0-.25-.05-.399-.148-.449-.098-.1-.295-.149-.541-.149v-.249h6.203v.25c-.886 0-1.723.248-2.61.796-.246.15-.984.697-2.215 1.743l-1.92 1.593c1.23 1.195 2.363 2.54 3.298 4.084.887 1.394 1.674 2.988 2.364 4.73l.492 1.196c.345.846.59 1.344.69 1.543.344.548.787.847 1.28.946v.25h-5.613v-.25c.59-.1.886-.448.886-.995 0-.648-.246-1.494-.69-2.64a23.304 23.304 0 00-1.23-2.49c-.492-.846-.985-1.643-1.576-2.39-.541-.747-1.181-1.494-1.92-2.29l-2.461 1.991v5.677c0 .996.05 1.693.197 2.092.246.647.738 1.045 1.477 1.095v.25H16v-.25c.738-.1 1.182-.498 1.428-1.046.147-.398.246-1.045.246-1.942V18.202z"/><path d="M41.453 22.137c.098-.35.246-.747.344-1.096.099-.398.197-.697.197-.896 0-.25-.049-.449-.197-.598-.147-.15-.393-.249-.738-.249v-.2h3.938v.25c-.492.05-.935.348-1.23.846-.148.25-.345.698-.591 1.494l-3.988 11.603c-.59 1.743-1.28 2.938-2.018 3.486-.64.498-1.428.747-2.413.747-.443 0-.886-.1-1.33-.25-.442-.148-.836-.398-1.23-.696l1.477-3.536.197.15c-.05.199-.098.398-.098.647 0 .548.147.996.393 1.394.296.399.64.598 1.133.598.738 0 1.329-.349 1.772-1.096a4.507 4.507 0 00.542-2.19c0-.549-.148-1.246-.394-1.993-.099-.299-.394-.946-.788-1.942l-3.003-6.971a9.926 9.926 0 00-.69-1.445c-.344-.498-.738-.746-1.18-.746v-.35h5.169v.25c-.296.05-.493.1-.64.249-.148.15-.198.299-.198.548 0 .199.05.448.148.697.099.299.197.498.246.647l3.003 7.171 2.167-6.523zm15.016 7.768c.246.348.541.747.787 1.095.345.399.739.648 1.083.698v.249h-5.317v-.25c.542-.05.788-.298.788-.647 0-.249-.148-.597-.394-1.046-.246-.348-.443-.647-.59-.846l-1.92-2.938-1.871 2.34c-1.034 1.345-1.527 2.191-1.527 2.54 0 .299.247.498.788.598v.249h-3.988v-.25c.296-.05.591-.199.837-.398s.64-.647 1.182-1.344l3.84-4.78L48 22.036c-.837-1.195-1.33-1.892-1.477-2.042-.443-.448-.837-.647-1.182-.647v-.25h5.514v.25c-.59.05-.837.299-.837.697 0 .2.099.498.296.797.147.249.295.548.59.896l.985 1.444 1.132-1.543c.345-.498.591-.797.64-.947.197-.348.296-.647.296-.846 0-.349-.246-.498-.788-.498v-.25h4.283v.25c-.59.05-1.23.398-1.87.996-.148.15-.64.747-1.428 1.743l-1.723 2.091 4.037 5.727zm12.751-5.428h-6.105v4.233c0 1.195.098 2.041.345 2.39.246.398.64.598 1.181.598v.249H58.98v-.25c.69 0 1.133-.298 1.33-.945.147-.399.197-1.096.197-2.042v-6.424c0-1.195-.099-1.992-.345-2.39-.246-.399-.64-.598-1.181-.598v-.2h5.71v.25c-.689 0-1.132.299-1.329.946-.148.398-.197 1.046-.197 2.042v1.045h6.056v-1.045c0-1.195-.099-1.992-.345-2.39-.246-.399-.64-.548-1.181-.548v-.3h5.71v.25c-.689 0-1.132.299-1.329.946-.148.398-.197 1.096-.197 2.042v6.424c0 1.195.099 1.991.345 2.39.246.398.64.597 1.181.597v.25h-5.71v-.25c.689 0 1.132-.298 1.329-.946.148-.398.197-1.095.197-2.041v-4.283zm15.557-2.241l-6.055 5.378v1.146c0 1.195.098 1.991.344 2.39.246.398.64.597 1.182.597v.25h-5.711v-.25c.689-.05 1.132-.398 1.329-.995.148-.399.197-1.046.197-1.943v-6.523c0-.946-.05-1.594-.197-1.942-.246-.648-.69-.996-1.379-1.046v-.2h5.711v.25c-.689 0-1.132.299-1.329.946-.147.398-.197 1.096-.197 2.042v3.834l6.056-5.378c-.05-.299-.099-.498-.197-.647-.246-.449-.739-.747-1.379-.797v-.25h5.711v.25c-.689 0-1.132.299-1.329.946-.148.398-.197 1.096-.197 2.042v6.424c0 1.195.099 1.991.345 2.39.246.398.64.597 1.181.597v.25h-5.71v-.25c.689-.05 1.132-.398 1.329-.995.147-.399.197-1.046.197-1.943v-6.573h.098zm20.53 9.91c-.148-.05-.296-.05-.493-.05h-.344l-3.102.15c-1.526 0-2.855-.15-3.988-.499-1.329-.398-2.51-.995-3.544-1.842a8.867 8.867 0 01-2.462-3.287 10.498 10.498 0 01-.837-4.133c0-1.195.197-2.29.64-3.386a7.457 7.457 0 011.92-2.69 7.806 7.806 0 012.905-1.543 13.187 13.187 0 013.495-.448l2.856.249.837.1c.246 0 .443-.05.64-.1.147-.1.295-.2.394-.448l1.181 4.93-.197.1c-.443-1.096-1.231-1.893-2.215-2.49a6.668 6.668 0 00-3.397-.897c-.886 0-1.723.15-2.363.398-.69.25-1.28.698-1.822 1.345-.541.647-.935 1.394-1.23 2.191a7.667 7.667 0 00-.444 2.54c0 2.34.69 4.332 2.117 5.975 1.477 1.743 3.348 2.59 5.613 2.59 1.28 0 2.412-.349 3.397-1.096.935-.697 1.723-1.693 2.313-2.988l.247.1-2.117 5.229zm12.652-9.91l-6.055 5.378v1.146c0 1.195.098 1.991.344 2.39.246.398.64.597 1.182.597v.25h-5.711v-.25c.689-.05 1.132-.398 1.329-.995.148-.399.197-1.046.197-1.943v-6.523c0-.946-.049-1.594-.197-1.942-.246-.648-.689-.996-1.378-1.046v-.2h5.711v.25c-.69 0-1.133.299-1.33.946-.147.398-.197 1.096-.197 2.042v3.834l6.056-5.378c-.049-.299-.099-.498-.197-.647-.246-.449-.738-.747-1.379-.797v-.25h5.711v.25c-.689 0-1.132.299-1.329.946-.148.398-.197 1.096-.197 2.042v6.424c0 1.195.099 1.991.345 2.39.246.398.64.597 1.181.597v.25h-5.612v-.25c.689-.05 1.132-.398 1.329-.995.148-.399.197-1.046.197-1.943v-6.573zm12.308 6.474c0 .996.049 1.643.197 1.992.246.647.738.946 1.477.946v.249h-5.957v-.25c.738 0 1.181-.348 1.428-.995.147-.399.246-1.096.246-1.992v-8.366c-1.526 0-2.659.299-3.397.896-.64.498-1.231 1.444-1.773 2.789l-.246-.1 1.28-5.179c.099.15.246.25.394.25.148.05.345.05.64.05h8.862c.246 0 .443 0 .64-.05.148-.05.295-.15.394-.25l1.28 5.18-.246.099c-.493-1.345-1.084-2.24-1.773-2.789-.788-.597-1.92-.896-3.397-.896v8.416h-.049zm15.754-6.474l-6.055 5.378v1.146c0 1.195.098 1.991.344 2.39.247.398.641.597 1.182.597v.25h-5.711v-.25c.689-.05 1.132-.398 1.329-.995.148-.399.197-1.046.197-1.943v-6.523c0-.946-.049-1.594-.197-1.942-.246-.648-.689-.996-1.378-1.046v-.2h5.711v.25c-.689 0-1.133.299-1.329.946-.148.398-.197 1.096-.197 2.042v3.834l6.055-5.378c-.049-.299-.098-.498-.197-.647-.246-.449-.689-.747-1.378-.797v-.25h5.711v.25c-.69 0-1.133.299-1.33.946-.147.398-.197 1.096-.197 2.042v6.424c0 1.195.099 1.991.345 2.39.246.398.64.597 1.182.597v.25h-5.613v-.25c.689-.05 1.133-.398 1.329-.995.148-.399.197-1.046.197-1.943v-6.573zm8.616-1.494c-1.083 0-2.019-.896-2.019-1.992 0-1.145.936-1.991 2.019-1.991 1.083 0 1.969.896 1.969 1.991 0 1.096-.886 1.992-1.969 1.992zm0 .399c1.329 0 2.363-1.046 2.363-2.39 0-1.345-1.034-2.39-2.363-2.39s-2.363 1.045-2.363 2.39c0 1.344 1.034 2.39 2.363 2.39zm.344-2.291c.444 0 .788-.2.788-.697 0-.548-.443-.697-.935-.697h-1.133v2.59h.345V18.85h.443l.788 1.195h.443l-.739-1.195zm-.886-.398v-.648h.69c.295 0 .64.05.64.299 0 .398-.542.349-.887.349h-.443z"/></g><defs><clipPath id="clip0"><path fill="#fff" transform="translate(16 13.5)" d="M0 0h141v23H0z"/></clipPath></defs></svg>
